X:368
T: IM RHEIN IM SCHOENEN STROME
N: B0436
O: Europa, Mitteleuropa, Deutschland, Spandau
R: Liebes - Lied, Liebes - Lust, religioes
M: 6/8
L: 1/8
K: Ab
E | c2ce2d | c3A2
A | G2GA2F | G3-G2
G | A2Ac2B | A3F2
F | E2AG2B | A3-A2

